themes/karlhaworth-com/static/svgs/american-airlines.svg

<svg xmlns="http://www.w3.org/2000/svg"  viewBox="0 0 50 50" width="500px" height="500px"><path d="M 1 0 C 0.640625 0 0.304688 0.1875 0.125 0.5 C -0.0507813 0.8125 -0.0273438 1.191406 0.15625 1.5 L 9.28125 16.875 C 11.21875 19.847656 13.046875 20 16.375 20 L 18.5 20 C 20.257813 19.039063 22.605469 18.253906 25.6875 18.0625 L 14.03125 3.40625 C 12.4375 1.355469 10.699219 0 7.40625 0 Z M 26.8125 20 C 19.625 20.085938 16.503906 23.796875 15.8125 25 C 15.191406 26.074219 15.554688 26.957031 16 27.9375 C 16.726563 29.246094 21.59375 37.34375 21.59375 37.34375 C 20.863281 36.089844 22.476563 32.566406 23.46875 30.84375 C 25.1875 27.855469 28.851563 26.15625 33.53125 26.15625 C 35.34375 26.15625 36.34375 26.402344 36.59375 26.5 C 36.917969 26.683594 37.335938 26.648438 37.65625 26.4375 C 38.015625 26.199219 38.175781 25.757813 38.0625 25.34375 C 36.703125 20.355469 31.984375 19.945313 26.8125 20 Z M 33.46875 28.15625 C 29.550781 28.171875 26.5625 29.503906 25.21875 31.84375 C 24.089844 33.804688 23.320313 35.949219 23.40625 36.5625 C 23.40625 36.558594 23.007813 38.414063 23.5625 40.71875 C 24.453125 42.242188 25.414063 43.855469 26.25 45.28125 C 27.960938 48.195313 31.101563 50 34.4375 50 L 49 50 C 49.386719 50 49.742188 49.785156 49.90625 49.4375 C 50.070313 49.089844 50.023438 48.675781 49.78125 48.375 Z"/></svg>

<svg xmlns="http://www.w3.org/2000/svg" width="500" height="500" viewBox="0 0 50 50"><path d="M1 0C.64 0 .305.188.125.5a1 1 0 0 0 .031 1l9.125 15.375C11.22 19.848 13.047 20 16.375 20H18.5c1.758-.96 4.105-1.746 7.188-1.937L14.03 3.406C12.437 1.356 10.7 0 7.406 0Zm25.813 20c-7.188.086-10.31 3.797-11 5-.622 1.074-.258 1.957.187 2.938.727 1.308 5.594 9.406 5.594 9.406-.73-1.254.883-4.778 1.875-6.5 1.718-2.989 5.383-4.688 10.062-4.688 1.813 0 2.813.246 3.063.344.324.184.742.148 1.062-.062.36-.239.52-.68.407-1.094-1.36-4.989-6.079-5.399-11.25-5.344m6.656 8.156c-3.918.016-6.907 1.348-8.25 3.688-1.13 1.96-1.899 4.105-1.813 4.718 0-.003-.398 1.852.157 4.157.89 1.523 1.851 3.136 2.687 4.562C27.96 48.195 31.102 50 34.438 50H49a1 1 0 0 0 .906-.562 1.01 1.01 0 0 0-.125-1.063Z"/></svg>
